resources/export-icons/real.svg

<?xml version="1.0" encoding="UTF-8"?>
<svg width="24px" height="24px" viewBox="0 0 24 24" version="1.1" xmlns="http://www.w3.org/2000/svg" xmlns:xlink="http://www.w3.org/1999/xlink">
    <!-- Generator: Sketch 41.2 (35397) - http://www.bohemiancoding.com/sketch -->
    <title>export-icons/real</title>
    <desc>Created with Sketch.</desc>
    <defs>
        <path d="M20.3417969,19.0478516 C20.6210951,19.0478516 20.7607422,19.2065414 20.7607422,19.5239258 C20.7607422,19.8413102 20.6210951,20 20.3417969,20 L16.0380859,20 C15.9026686,20 15.7968754,19.9407558 15.7207031,19.8222656 L10.8076172,12.2304688 L9.98242188,12.2304688 L9.98242188,17.6894531 C9.98242188,18.2903676 10.0797516,18.6669914 10.2744141,18.8193359 C10.4690765,18.9716804 10.8372369,19.0478516 11.3789062,19.0478516 C11.9205756,19.0478516 12.1914062,19.2001938 12.1914062,19.5048828 C12.1914062,19.8349626 12.0475275,20 11.7597656,20 L4.10449219,20 C3.81673033,20 3.67285156,19.8349626 3.67285156,19.5048828 C3.67285156,19.2001938 3.95849324,19.0478516 4.52978516,19.0478516 C5.10107708,19.0478516 5.46923746,18.9674487 5.63427734,18.8066406 C5.79931723,18.6458325 5.88183594,18.2565135 5.88183594,17.6386719 L5.88183594,5.26074219 C5.88183594,4.65982772 5.78239032,4.28320389 5.58349609,4.13085938 C5.38460187,3.97851486 5.01644149,3.90234375 4.47900391,3.90234375 C3.94156632,3.90234375 3.67285156,3.74365393 3.67285156,3.42626953 C3.67285156,3.10888513 3.81673033,2.95019531 4.10449219,2.95019531 L12.2929688,2.95019531 C13.9941491,2.95019531 15.4583272,3.29296532 16.6855469,3.97851562 C18.1836012,4.81641044 18.9326172,6.02245307 18.9326172,7.59667969 C18.9326172,9.97494679 17.485366,11.4264297 14.5908203,11.9511719 C17.6038562,16.6823153 19.5208292,19.0478516 20.3417969,19.0478516 Z M14.7431641,10.9482422 C16.901378,10.4573543 17.9804688,9.35075731 17.9804688,7.62841797 C17.9804688,5.90607863 16.8675242,4.75716434 14.6416016,4.18164062 C15.2509796,4.92643602 15.5556641,6.06477099 15.5556641,7.59667969 C15.5556641,9.12858839 15.2848334,10.2457647 14.7431641,10.9482422 Z M10.5664062,11.2910156 C12.1406329,11.2910156 13.2070285,11.0603864 13.765625,10.5991211 C14.3242215,10.1378558 14.6035156,9.20264376 14.6035156,7.79345703 C14.6035156,6.3842703 14.3728864,5.3834665 13.9116211,4.79101562 C13.4503558,4.19856475 12.6018942,3.90234375 11.3662109,3.90234375 C10.4436803,3.90234375 9.98242188,4.21972339 9.98242188,4.85449219 L9.98242188,11.2910156 L10.5664062,11.2910156 Z M18.6279297,19.0478516 C17.3837828,17.8968041 15.6445424,15.5101093 13.4101562,11.8876953 C13.0039042,12.0315762 12.5045603,12.1331377 11.9121094,12.1923828 L16.3554688,19.0478516 L18.6279297,19.0478516 Z M6.83398438,5.26074219 L6.83398438,17.6386719 C6.83398438,18.2395863 6.75781326,18.7093082 6.60546875,19.0478516 L9.27148438,19.0478516 C9.11067628,18.7093082 9.03027344,18.2565133 9.03027344,17.6894531 L9.03027344,4.85449219 C9.03027344,4.49902166 9.12337146,4.18164202 9.30957031,3.90234375 L6.59277344,3.90234375 C6.75358153,4.24088711 6.83398438,4.69368206 6.83398438,5.26074219 Z" id="path-1"></path>
    </defs>
    <g id="Symbols" stroke="none" stroke-width="1" fill="none" fill-rule="evenodd">
        <g id="export-icons/real">
            <mask id="mask-2" fill="white">
                <use xlink:href="#path-1"></use>
            </mask>
            <use id="ℝ" fill-opacity="0.87" fill="#000000" xlink:href="#path-1"></use>
        </g>
    </g>
</svg>

<svg width="24" height="24" viewBox="0 0 24 24" xmlns="http://www.w3.org/2000/svg" xmlns:xlink="http://www.w3.org/1999/xlink"><title>export-icons/real</title><defs><path d="M20.342 19.048c.28 0 .42.16.42.476 0 .317-.14.476-.42.476h-4.304c-.135 0-.24-.06-.317-.178L10.81 12.23h-.826v5.46c0 .6.098.977.292 1.13.195.152.563.228 1.105.228.54 0 .81.152.81.457 0 .33-.142.495-.43.495H4.104c-.287 0-.43-.165-.43-.495 0-.305.284-.457.856-.457.57 0 .94-.08 1.104-.24.165-.162.248-.55.248-1.17V5.262c0-.6-.1-.977-.3-1.13-.197-.15-.566-.228-1.103-.228-.538 0-.807-.158-.807-.476 0-.317.144-.476.43-.476h8.19c1.7 0 3.165.343 4.393 1.03 1.498.836 2.247 2.042 2.247 3.617 0 2.378-1.448 3.83-4.342 4.354 3.014 4.732 4.93 7.098 5.752 7.098zm-5.6-8.1c2.16-.49 3.238-1.597 3.238-3.32 0-1.722-1.112-2.87-3.338-3.446.61.744.914 1.883.914 3.415s-.27 2.65-.813 3.35zm-4.176.343c1.575 0 2.64-.23 3.2-.69.558-.462.838-1.397.838-2.807s-.23-2.41-.692-3.002c-.462-.59-1.31-.888-2.546-.888-.922 0-1.384.318-1.384.952v6.437h.584zm8.062 7.758c-1.244-1.15-2.983-3.538-5.218-7.16-.406.144-.905.245-1.498.304l4.443 6.856h2.273zM6.834 5.26v12.38c0 .6-.076 1.07-.23 1.408h2.667c-.16-.34-.24-.79-.24-1.36V4.855c0-.355.093-.672.28-.952H6.593c.16.34.24.792.24 1.36z" id="a"/></defs><use fill-opacity=".87" fill="#000" xlink:href="#a" fill-rule="evenodd"/></svg>
